fl/SH.svg

<svg viewBox="0 0 21 15" version="1.1" xmlns="http://www.w3.org/2000/svg" xmlns:xlink="http://www.w3.org/1999/xlink" height="1em" width="1em">
  <defs>
    <linearGradient x1="50%" y1="0%" x2="50%" y2="100%" id="a">
      <stop stop-color="#FFFFFF" offset="0%"/>
      <stop stop-color="#F0F0F0" offset="100%"/>
    </linearGradient>
    <linearGradient x1="50%" y1="0%" x2="50%" y2="100%" id="b">
      <stop stop-color="#07319C" offset="0%"/>
      <stop stop-color="#00247E" offset="100%"/>
    </linearGradient>
    <linearGradient x1="50%" y1="0%" x2="50%" y2="100%" id="d">
      <stop stop-color="#A7D2FF" offset="0%"/>
      <stop stop-color="#91C6FD" offset="100%"/>
    </linearGradient>
    <path d="M0,3.5 L1.54164674e-17,0.509643555 C6.90218757e-18,0.228175192 0.21484375,0 0.497698784,0 L4.50230122,0 C4.77717266,0 5,0.226606369 5,0.509643555 L5,3.5 C5,5.5 2.5,6 2.5,6 C2.5,6 0,5.5 0,3.5 Z" id="c"/>
    <linearGradient x1="50%" y1="0%" x2="50%" y2="100%" id="e">
      <stop stop-color="#EE7B2D" offset="0%"/>
      <stop stop-color="#CC621A" offset="100%"/>
    </linearGradient>
    <linearGradient x1="50%" y1="0%" x2="50%" y2="100%" id="g">
      <stop stop-color="#FFFC4B" offset="0%"/>
      <stop stop-color="#FFFC38" offset="100%"/>
    </linearGradient>
    <linearGradient x1="50%" y1="0%" x2="50%" y2="100%" id="h">
      <stop stop-color="#DB1E36" offset="0%"/>
      <stop stop-color="#D51931" offset="100%"/>
    </linearGradient>
  </defs>
  <g stroke="none" stroke-width="1" fill="none" fill-rule="evenodd">
    <g>
      <rect fill="url(#a)" x="0" y="0" width="21" height="15"/>
      <rect fill="url(#b)" x="0" y="0" width="21" height="15"/>
      <g transform="translate(13.000000, 6.000000)">
        <mask id="f" fill="white">
          <use xlink:href="#c"/>
        </mask>
        <use fill="url(#d)" xlink:href="#c"/>
        <path d="M0.5,6.5 C1.32842712,6.5 1.5,5.1045695 1.5,4 C1.5,2.8954305 1.32842712,2.5 0.5,2.5 C-0.328427125,2.5 -1,2.8954305 -1,4 C-1,5.1045695 -0.328427125,6.5 0.5,6.5 Z" fill="url(#e)" mask="url(#f)"/>
        <ellipse fill="#A75113" mask="url(#f)" cx="2.5" cy="4.5" rx="1.5" ry="1"/>
        <ellipse fill="#FFFFFF" mask="url(#f)" cx="2.5" cy="3.5" rx="1" ry="1"/>
        <rect fill="url(#g)" mask="url(#f)" x="0" y="0" width="5" height="2"/>
      </g>
      <path d="M3,3.22996746 L-1.3516287,-0.5 L0.660232527,-0.5 L4.16023253,2 L4.85660189,2 L9.5,-0.902123821 L9.5,0.25 C9.5,0.552509227 9.33308555,0.876533554 9.08215972,1.05576629 L6,3.25730895 L6,3.77003254 L9.13722049,6.45907867 C9.59934261,6.85518335 9.34102897,7.5 8.75,7.5 C8.50478614,7.5 8.2052751,7.40393402 8.00092153,7.25796718 L4.83976747,5 L4.14339811,5 L-0.5,7.90212382 L-0.5,6.24269105 L3,3.74269105 L3,3.22996746 Z" fill="url(#a)" fill-rule="nonzero"/>
      <path d="M3.5,3 L-4.4408921e-16,0 L0.5,0 L4,2.5 L5,2.5 L9,0 L9,0.25 C9,0.388071187 8.91348267,0.561798096 8.79154062,0.648899555 L5.5,3 L5.5,4 L8.8118248,6.83870697 C8.91575109,6.92778665 8.8840332,7 8.75,7 L8.75,7 C8.61192881,7 8.41348267,6.9382019 8.29154062,6.85110044 L5,4.5 L4,4.5 L-4.4408921e-16,7 L-4.4408921e-16,6.5 L3.5,4 L3.5,3 Z" fill="url(#h)"/>
      <path d="M-4.4408921e-16,2.5 L-4.4408921e-16,4.5 L3.5,4.5 L3.5,7.00461102 C3.5,7.2782068 3.71403503,7.5 4.00468445,7.5 L4.99531555,7.5 C5.27404508,7.5 5.5,7.2842474 5.5,7.00461102 L5.5,4.5 L9.00952148,4.5 C9.28040529,4.5 9.5,4.28596497 9.5,3.99531555 L9.5,3.00468445 C9.5,2.72595492 9.28494263,2.5 9.00952148,2.5 L5.5,2.5 L5.5,0 L3.5,0 L3.5,2.5 L-4.4408921e-16,2.5 Z" fill="url(#a)"/>
      <polygon fill="url(#h)" points="-4.4408921e-16 3 4 3 4 2.5 4 0 5 0 5 2.5 5 3 9 3 9 4 5 4 5 4.5 5 7 4 7 4 4.5 4 4 -4.4408921e-16 4"/>
    </g>
  </g>
</svg>

<svg viewBox="0 0 21 15" xmlns="http://www.w3.org/2000/svg" xmlns:xlink="http://www.w3.org/1999/xlink" height="1em" width="1em">
  <defs>
    <linearGradient x1="50%" y1="0%" x2="50%" y2="100%" id="a">
      <stop stop-color="#FFF" offset="0%"/>
      <stop stop-color="#F0F0F0" offset="100%"/>
    </linearGradient>
    <linearGradient x1="50%" y1="0%" x2="50%" y2="100%" id="b">
      <stop stop-color="#07319C" offset="0%"/>
      <stop stop-color="#00247E" offset="100%"/>
    </linearGradient>
    <linearGradient x1="50%" y1="0%" x2="50%" y2="100%" id="d">
      <stop stop-color="#A7D2FF" offset="0%"/>
      <stop stop-color="#91C6FD" offset="100%"/>
    </linearGradient>
    <linearGradient x1="50%" y1="0%" x2="50%" y2="100%" id="e">
      <stop stop-color="#EE7B2D" offset="0%"/>
      <stop stop-color="#CC621A" offset="100%"/>
    </linearGradient>
    <linearGradient x1="50%" y1="0%" x2="50%" y2="100%" id="g">
      <stop stop-color="#FFFC4B" offset="0%"/>
      <stop stop-color="#FFFC38" offset="100%"/>
    </linearGradient>
    <linearGradient x1="50%" y1="0%" x2="50%" y2="100%" id="h">
      <stop stop-color="#DB1E36" offset="0%"/>
      <stop stop-color="#D51931" offset="100%"/>
    </linearGradient>
    <path d="M0 3.5V.51C0 .228.215 0 .498 0h4.004C4.777 0 5 .227 5 .51V3.5C5 5.5 2.5 6 2.5 6S0 5.5 0 3.5Z" id="c"/>
  </defs>
  <g fill="none" fill-rule="evenodd">
    <path fill="url(#a)" d="M0 0h21v15H0z"/>
    <path fill="url(#b)" d="M0 0h21v15H0z"/>
    <g transform="translate(13 6)">
      <mask id="f" fill="#fff">
        <use xlink:href="#c"/>
      </mask>
      <use fill="url(#d)" xlink:href="#c"/>
      <path d="M.5 6.5c.828 0 1-1.395 1-2.5s-.172-1.5-1-1.5C-.328 2.5-1 2.895-1 4S-.328 6.5.5 6.5Z" fill="url(#e)" mask="url(#f)"/>
      <ellipse fill="#A75113" mask="url(#f)" cx="2.5" cy="4.5" rx="1.5" ry="1"/>
      <circle fill="#FFF" mask="url(#f)" cx="2.5" cy="3.5" r="1"/>
      <path fill="url(#g)" mask="url(#f)" d="M0 0h5v2H0z"/>
    </g>
    <path d="M3 3.23-1.352-.5H.66L4.16 2h.697L9.5-.902V.25c0 .303-.167.627-.418.806L6 3.257v.513l3.137 2.69c.462.395.204 1.04-.387 1.04-.245 0-.545-.096-.75-.242L4.84 5h-.697L-.5 7.902v-1.66l3.5-2.5V3.23Z" fill="url(#a)" fill-rule="nonzero"/>
    <path d="M3.5 3 0 0h.5L4 2.5h1L9 0v.25a.537.537 0 0 1-.208.399L5.5 3v1l3.312 2.839c.104.089.072.161-.062.161a.898.898 0 0 1-.458-.149L5 4.5H4L0 7v-.5L3.5 4V3Z" fill="url(#h)"/>
    <path d="M0 2.5v2h3.5v2.505c0 .273.214.495.505.495h.99a.496.496 0 0 0 .505-.495V4.5h3.51a.49.49 0 0 0 .49-.505v-.99a.495.495 0 0 0-.49-.505H5.5V0h-2v2.5H0Z" fill="url(#a)"/>
    <path fill="url(#h)" d="M0 3h4V0h1v3h4v1H5v3H4V4H0z"/>
  </g>
</svg>
